X: 2018
T: the BRIDGE OF GARRY
R: Reel.
%R: reel
B: James Kerr "Merry Melodies" v.2 p.5 #18
Z: 2016 John Chambers <jc:trillian.mit.edu>
M: C
L: 1/8
K: A
ua |\
   A/A/A (eA) cAeA | Bffe fBBa |\
   A/A/A (eA) cAeA | EFAB cAA ::\
ug |\
   a2(ea) cAec |
   Bffe   fBBg |\
[1 aeea   cAec | EFAB cAA :|\
[2 afbg   afed | ceBd cAA |]
